X: 41729
T: Valse A Donald
R: waltz
M: 3/4
K: Amajor
|:AB|c6|c2B2A2|f4e2|c4AB|ce-e4|c2B2A2|F4A2|B4AB|
c6|c2B2A2|f4e2|c4AB|ce-e4|c2B2A2|F4A2|1 A4:|2 A2a2e2||
|:f6|f2a3f|ec-c4|c2a2e2|f4de|f2g2a2|b6|a2g2e2|
f6|f2a3f|ec-c4|c2B2A2|1 c3Ac2|d3Bd2|e2c2e2|f2a3g:|
[2 f3df2|g3eg2|a2f2a2|b3z||

